X:806
T:Macphail's Compliments To Chrissie Letham
C:Joe Buchanan's Scottish Tome - Page 059.0
I:059 0
C:Iain MacPhail?
R:Strathspey
Z:Carl Allison
L:1/8
M:4/4
K:D
A/ (a/g/f/e/) |"D" d>B Aa |"D" f2 "D7"g/f/e/d/ | B>A "G"Ge | "G"d2 "A7"B<G |
"D"A>B Ad |"D" f>g fg |"D" a>f "E7"ed |"Em" e2 "A7"a/g/f/e/ |
"D"d>B Aa |"D" f2 g/f/e/d/ |"G" B>A Ge |"G" d2 "A7"B/G |
"D"A>B Ad |"D" f>g "Bm"af |"Em" e<A "Q7"a/g/f/e/ |"D" d2 "D7"f/e/d/c/ |
"G7"B>A GB | d2 ed |"G7" B<A A>B |"D" f2 "D"g/f/"D7"e/d/ |
"A7"c>B Ac |"A7" e>c d/e/f/g/ |"D" aa/g/ "A7"f/g/f/e/ |"D" da/g/ "D7"f/e/d/c/ |
"G7"B>A GB | "G"d"A"c/d/ "B"e/d/"Cm"c/B/ | "D"A>B Ad | "D"fA/f/ "D"g/f/"D7"e/d/ |
"A7"c>B A/B/c/d/ | "A7"eB/c/ d/e/f/g/ |"Em" aa/g/ "A7"f/g/f/e/ |"D" d2 d2 |]
